build/assets/img/facebook-footer.svg

<svg width="20" height="20" viewBox="0 0 20 20" fill="none" xmlns="http://www.w3.org/2000/svg">
<path d="M11.6122 19.8701C11.5289 19.8837 11.4453 19.8962 11.3613 19.9077C11.4453 19.8962 11.5289 19.8837 11.6122 19.8701Z" fill="black"/>
<path d="M11.8128 19.8359C11.773 19.8433 11.7332 19.85 11.6934 19.8568C11.7332 19.85 11.773 19.8433 11.8128 19.8359Z" fill="black"/>
<path d="M11.1378 19.9351C11.0403 19.946 10.9421 19.9558 10.8438 19.9641C10.9421 19.9558 11.0403 19.946 11.1378 19.9351Z" fill="black"/>
<path d="M11.3304 19.9116C11.2836 19.9179 11.2365 19.9237 11.1895 19.9292C11.2365 19.9237 11.2836 19.9179 11.3304 19.9116Z" fill="black"/>
<path d="M12.0841 19.7817C12.049 19.7892 12.0138 19.7967 11.9785 19.8039C12.0138 19.7967 12.049 19.7892 12.0841 19.7817Z" fill="black"/>
<path d="M12.7609 19.6138C12.7325 19.6219 12.7042 19.6295 12.6758 19.6374C12.7042 19.6295 12.7325 19.6219 12.7609 19.6138Z" fill="black"/>
<path d="M12.5557 19.6699C12.5248 19.678 12.4939 19.6862 12.4629 19.694C12.4939 19.6862 12.5248 19.6782 12.5557 19.6699Z" fill="black"/>
<path d="M12.288 19.7363C12.2554 19.744 12.2224 19.7511 12.1895 19.7585C12.2224 19.7511 12.2554 19.744 12.288 19.7363Z" fill="black"/>
<path d="M10.8417 19.9644C10.789 19.9688 10.7364 19.9727 10.6836 19.9763C10.7364 19.9727 10.789 19.9688 10.8417 19.9644Z" fill="black"/>
<path d="M20 10C20 4.478 15.522 0 10 0C4.478 0 0 4.478 0 10C0 15.522 4.478 20 10 20C10.0587 20 10.1172 19.9988 10.1758 19.9977V12.2131H8.02734V9.70932H10.1758V7.86682C10.1758 5.72998 11.4803 4.56696 13.3864 4.56696C14.2992 4.56696 15.0838 4.63501 15.3125 4.66537V6.89865H13.9981C12.9611 6.89865 12.7603 7.39151 12.7603 8.11462V9.70932H15.2399L14.9167 12.2131H12.7603V19.6136C16.9402 18.4154 20 14.5645 20 10Z" fill="white"/>
<path d="M10.6611 19.9775C10.557 19.9843 10.4525 19.9896 10.3477 19.9931C10.4525 19.9896 10.557 19.9843 10.6611 19.9775Z" fill="black"/>
<path d="M10.3418 19.9937C10.2866 19.9955 10.2312 19.9969 10.1758 19.9978C10.2312 19.9969 10.2866 19.9955 10.3418 19.9937Z" fill="black"/>
</svg>

<svg width="20" height="20" fill="none" xmlns="http://www.w3.org/2000/svg"><path d="M11.612 19.87zm.201-.034l-.12.02.12-.02zm-.675.099zm.192-.023zm.754-.13zm.676-.168l-.084.023.085-.023zm-.204.056l-.093.024a6.02 6.02 0 00.093-.024zm-.268.066l-.098.023.098-.023zm-1.446.228z" fill="#000"/><path d="M20 10c0-5.522-4.478-10-10-10S0 4.478 0 10s4.478 10 10 10l.176-.002v-7.785H8.027V9.71h2.149V7.867c0-2.137 1.304-3.3 3.21-3.3.913 0 1.698.068 1.927.098V6.9h-1.315c-1.037 0-1.238.493-1.238 1.216V9.71h2.48l-.323 2.504H12.76v7.4C16.94 18.416 20 14.566 20 10z" fill="#fff"/><path d="M10.661 19.977zm-.319.017z" fill="#000"/></svg>
